components/Common/Svg/svgs/digit6.svg

<svg width="90" height="90" viewBox="0 0 90 90" fill="none" xmlns="http://www.w3.org/2000/svg">
<circle cx="45" cy="45" r="45" fill="#FFE603"/>
<path d="M47.9798 37.878C47.7984 37.0393 47.4811 36.416 47.0278 36.008C46.5744 35.5773 45.9284 35.362 45.0898 35.362C43.7978 35.362 42.8684 35.9287 42.3018 37.062C41.7351 38.1727 41.4404 39.9407 41.4178 42.366C41.9164 41.5727 42.6304 40.9493 43.5598 40.496C44.5118 40.0427 45.5544 39.816 46.6878 39.816C48.9091 39.816 50.6884 40.5187 52.0258 41.924C53.3858 43.3293 54.0658 45.29 54.0658 47.806C54.0658 49.4607 53.7258 50.9113 53.0458 52.158C52.3884 53.4047 51.4138 54.3793 50.1218 55.082C48.8524 55.7847 47.3451 56.136 45.5998 56.136C42.1091 56.136 39.6838 55.048 38.3238 52.872C36.9638 50.6733 36.2838 47.5227 36.2838 43.42C36.2838 39.1133 36.9978 35.9173 38.4258 33.832C39.8764 31.724 42.1884 30.67 45.3618 30.67C47.0618 30.67 48.4898 31.01 49.6458 31.69C50.8244 32.3473 51.7084 33.22 52.2978 34.308C52.9098 35.396 53.2724 36.586 53.3858 37.878H47.9798ZM45.2938 44.406C44.3191 44.406 43.5031 44.7007 42.8458 45.29C42.2111 45.8567 41.8938 46.6727 41.8938 47.738C41.8938 48.826 42.1884 49.676 42.7778 50.288C43.3898 50.9 44.2511 51.206 45.3618 51.206C46.3591 51.206 47.1411 50.9113 47.7078 50.322C48.2971 49.71 48.5918 48.8827 48.5918 47.84C48.5918 46.7747 48.3084 45.936 47.7418 45.324C47.1751 44.712 46.3591 44.406 45.2938 44.406Z" fill="black"/>
</svg>

<svg width="90" height="90" viewBox="0 0 90 90" fill="none" xmlns="http://www.w3.org/2000/svg"><circle cx="45" cy="45" r="45" fill="#FFE603"/><path d="M47.98 37.878c-.182-.839-.499-1.462-.952-1.87-.454-.43-1.1-.646-1.938-.646-1.292 0-2.222.567-2.788 1.7-.567 1.11-.862 2.879-.884 5.304.498-.793 1.212-1.417 2.142-1.87.952-.453 1.994-.68 3.128-.68 2.221 0 4 .703 5.338 2.108 1.36 1.405 2.04 3.366 2.04 5.882 0 1.655-.34 3.105-1.02 4.352-.658 1.247-1.632 2.221-2.924 2.924-1.27.703-2.777 1.054-4.522 1.054-3.49 0-5.916-1.088-7.276-3.264-1.36-2.199-2.04-5.35-2.04-9.452 0-4.307.714-7.503 2.142-9.588 1.45-2.108 3.762-3.162 6.936-3.162 1.7 0 3.128.34 4.284 1.02 1.178.657 2.062 1.53 2.652 2.618a8.755 8.755 0 0 1 1.088 3.57H47.98Zm-2.686 6.528c-.975 0-1.79.295-2.448.884-.635.567-.952 1.383-.952 2.448 0 1.088.294 1.938.884 2.55.612.612 1.473.918 2.584.918.997 0 1.78-.295 2.346-.884.59-.612.884-1.44.884-2.482 0-1.065-.284-1.904-.85-2.516-.567-.612-1.383-.918-2.448-.918Z" fill="#000"/></svg>
